X:455
T:Catch for Three Flutes.2voices RH.456
R:air
S:Rev.R.Harrison’s MS,c1815,Cumbria
O:England
A:Temple Sowerby,Cumbria
Z:vmp.Simon Wilson. Review PJH, 2008.
M:3/4
L:1/8
Q:3/4=40
K:G
[V:1] (d>e) d2c2|B3cd2|(E>G)c2B2|(B2A2)d2|
[V:2] B>c BG AF|G3AB2|(c>B)A2G2|(^G2FA) GB|
[V:3] G2G2D2|G4G2|cEF2G2|D4E2|
%
[V:1] (d2^c2)=c2|(d2B2)G>B|A>GF3G|G6|]
[V:2] E2A2A2|A>FG2d2|c>BA3G|G6|]
[V:3] A4F2|G4B2|cC2D2C|G6|]

